icon-themes/breeze_svg/cmd/sc_rotateleft.svg

<svg viewBox="0 0 16 16" xmlns="http://www.w3.org/2000/svg">/&gt;<path d="m7.5 2-2.3125 2.28125-.1875.21875.1875.21875 2.3125 2.28125h1.40625l-2-2h2.28125.8125v-1h-.8125-2.28125l2-2zm5 3c-.27614 0-.5.22386-.5.5s.22386.5.5.5.5-.22386.5-.5-.22386-.5-.5-.5zm-6.96875 1.5625-3.53125 3.53125 3.90625 3.90625 3.53125-3.53125zm7.96875 1.4375c-.27614 0-.5.22386-.5.5s.22386.5.5.5.5-.22386.5-.5-.22386-.5-.5-.5zm-1 3c-.27614 0-.5.22386-.5.5s.22386.5.5.5.5-.22386.5-.5-.22386-.5-.5-.5zm-3 1c-.27614 0-.5.22386-.5.5s.22386.5.5.5.5-.22386.5-.5-.22386-.5-.5-.5z" fill="#4d4d4d"/></svg>

<svg xmlns="http://www.w3.org/2000/svg" viewBox="0 0 16 16">
     />
 <path 
     style="fill:#4d4d4d" 
     d="M 7.5 2 L 5.1875 4.28125 L 5 4.5 L 5.1875 4.71875 L 7.5 7 L 8.90625 7 L 6.90625 5 L 9.1875 5 L 10 5 L 10 4 L 9.1875 4 L 6.90625 4 L 8.90625 2 L 7.5 2 z M 12.5 5 C 12.22386 5 12 5.22386 12 5.5 C 12 5.77614 12.22386 6 12.5 6 C 12.77614 6 13 5.77614 13 5.5 C 13 5.22386 12.77614 5 12.5 5 z M 5.53125 6.5625 L 2 10.09375 L 5.90625 14 L 9.4375 10.46875 L 5.53125 6.5625 z M 13.5 8 C 13.22386 8 13 8.22386 13 8.5 C 13 8.77614 13.22386 9 13.5 9 C 13.77614 9 14 8.77614 14 8.5 C 14 8.22386 13.77614 8 13.5 8 z M 12.5 11 C 12.22386 11 12 11.22386 12 11.5 C 12 11.77614 12.22386 12 12.5 12 C 12.77614 12 13 11.77614 13 11.5 C 13 11.22386 12.77614 11 12.5 11 z M 9.5 12 C 9.22386 12 9 12.22386 9 12.5 C 9 12.77614 9.22386 13 9.5 13 C 9.77614 13 10 12.77614 10 12.5 C 10 12.22386 9.77614 12 9.5 12 z "
     />
 </svg>
